resources/images/icons/cards/bookmark.svg

<svg width="24" height="24" viewBox="0 0 24 24" fill="none" xmlns="http://www.w3.org/2000/svg">
    <path fill-rule="evenodd" clip-rule="evenodd"
        d="M4.5 5C4.5 4.72386 4.72386 4.5 5 4.5H17.063C18.4095 4.5 19.5 5.59052 19.5 6.93704V18.6296C19.5 19.1095 19.1095 19.5 18.6296 19.5C18.5133 19.5 18.4006 19.4594 18.311 19.3853L12.1897 14.3231C12.0818 14.2347 11.9222 14.2344 11.8143 14.3229L5.6889 19.3854C5.59928 19.4595 5.48664 19.5 5.37037 19.5C4.89052 19.5 4.5 19.1095 4.5 18.6296V5ZM5.5 5.5V18.2442L11.1778 13.5516L11.1786 13.5509C11.6558 13.1583 12.3479 13.1583 12.8251 13.5509L12.8261 13.5517L18.5 18.244V6.93704C18.5 6.14281 17.8572 5.5 17.063 5.5H5.5Z"
        fill="#F2F5F0" />
</svg>

<svg xmlns="http://www.w3.org/2000/svg" width="24" height="24" viewBox="0 0 24 24">
  <g id="bookmark" transform="translate(-883 -442)">
    <rect id="Rectángulo_3" data-name="Rectángulo 3" width="24" height="24" transform="translate(883 442)" fill="#fff" opacity="0"/>
    <path id="Trazado_5" data-name="Trazado 5" d="M4.5,5A.5.5,0,0,1,5,4.5H17.063A2.436,2.436,0,0,1,19.5,6.937V18.63a.871.871,0,0,1-.87.87.5.5,0,0,1-.319-.115L12.19,14.323a.3.3,0,0,0-.375,0L5.689,19.385a.5.5,0,0,1-.319.115.871.871,0,0,1-.87-.87Zm1,.5V18.244l5.678-4.693h0a1.3,1.3,0,0,1,1.646,0h0L18.5,18.244V6.937A1.436,1.436,0,0,0,17.063,5.5Z" transform="translate(883.5 442.5)" fill="#f2f5f0" fill-rule="evenodd"/>
  </g>
</svg>
